X: 103
T: Cantantibus organis – Allegretto
C: Franciszek Walczyński
%%abc-version 2.0
%%abcx-abcm2ps-target-version 5.9.1 (29 Sep 2008)
%%abc-creator hum2abc beta
%%abcx-conversion-date 2021/10/04 07:38:38
%%abc-edited-by Kamil Watkowski
%%abcx-initial-encoding-date 2021-08-09
%%humdrum-veritas 1804893928
%%humdrum-veritas-data 4107712257
%%linebreak <none>
%%barnumbers 0
L: 1/8
M: 3/4
N: Derived from pl-kozmzk--mzk-m-346--004_walczynski-franciszek--cantantibus-organis-allegretto.krn
%%staves {1 2}
V: 1 clef=treble
V: 2 clef=bass
K: C
[V:1] c2Bcdc & E6- | 
[V:2] A,,A,^G,A,B,A, | 
[V:1] BcBA^G2 & E6- | 
[V:2] ^G,A,G,^F,E,D, | 
[V:1] ABc2d2 & E4A2- | 
[V:2] C,^G,,A,,2=F,,2 | 
[V:1] B6 & A2^G^FG2 | 
[V:2] E,,2E,.D,.C,.B,, | 
[V:1] c2Bcde & E4A2 | 
[V:2] A,,A,^G,A,F,^C, | 
[V:1] fedcB2 & AGFD G=F- | 
[V:2] D,E,F,^F,G,G,, | 
[V:1] c6- & FEDAGF | 
[V:2] C,6- | 
[V:1] c6 & EFEDE2 ||  
[V:2] C,6 ||  
[V:1] B6 & ^G6 | 
[V:2] z FEDEF | 
[V:1] c6 & A6 | 
[V:2] A,B,C^DEC | 
[V:1] B6- & A6 | 
[V:2] ^D^FED^GF | 
[V:1] B6 & ^G6 | 
[V:2] EB,^G,^CB,2 | 
[V:1] B6 & A6 | 
[V:2] ^D^FED^GF | 
[V:1] B2e=fdc & ^G2A4- | 
[V:2] E=D=CD=FE | 
[V:1] B4c2 & A2^G2A2 | 
[V:2] ^D^FE=DC^D | 
[V:1] !fermata!B6 & ^G6 ||  
[V:2] EB,.^G,.^F,!accent!!fermata!E,2 ||  
[V:1]  [K:A] c2Bcdc & E6- | 
[V:2]  [K:A] A,,A,G,A,B,A, | 
[V:1] BcBAG2 & E6 | 
[V:2] G,A,G,F,E,D, | 
[V:1] ABc4 & E2A4- | 
[V:2] C,G,,A,,2=G,,2 | 
[V:1] d4^d2 & A6 | 
[V:2] F,,4=F,,2 | 
[V:1] ecBAG2 & cAGF ED | 
[V:2] E,,6- | 
[V:1] AEDC ED & C2B,A,G,2 | 
[V:2] E,,6 | 
[V:1] C2DCB,2 | 
[V:2] A,=G, F,E,F,^G, & A,,2B,,C,D,E, | 
[V:1] C4z2 | 
[V:2] A,4E,2- & A,,4z2 | 
[V:1] EFEB,CD | 
[V:2] E,6- & G,,6 | 
[V:1] CDEFGA | 
[V:2] E, zz2z2 & A,, zz2z2 | 
[V:1] B6 & G6 | 
[V:2] EFEB,CD | 
[V:1] ABABc2 & EFE4 | 
[V:2] CDCG,A,2 | 
[V:1] c2Bcdc & E6- | 
[V:2] A,,A,G,A,B,A, | 
[V:1] BcBAG2 & E6- | 
[V:2] G,A,G,F,E,D, | 
[V:1] A^AB=AG2 & E2DCED | 
[V:2] C,F,,B,,2E,2 | 
[V:1] AFED!fermata!C2 & CDCF,/G,/!fermata!A,2 ||  
[V:2] !fermata!A,,6 ||  
[V:1]  [K:C] [M:3/4]EFEB,CD | 
[V:2]  [K:C] [M:3/4]E,6- & ^G,,6 | 
[V:1] CD.E.^G.A.c | 
[V:2] E, zz2z2 & A,, zz2z2 | 
[V:1] B6 & ^G6 | 
[V:2] EFEB,CD | 
[V:1] ABc^cde & E2>A2 AG | 
[V:2] C^G,A,=G,F,^C, | 
[V:1] fedcBA & [FA] zz2z2 | 
[V:2] D, zz2z2 | 
[V:1] ^G6 & z .F.E.D.C.B, | 
[V:2] z6 | 
[V:1] A2B2^G2 & C2F2ED | 
[V:2] F,2D,2E,2 | 
[V:1] A6- & C6- | 
[V:2] A,,B,,C,^D,E,C, | 
[V:1] A2z2z2 & C2x2x2 | 
[V:2] A,,6- | 
[V:1] A2G2F2 & F2E2D2 | 
[V:2] A,,6- | 
[V:1] E6 & C6 | 
[V:2] A,,B,,C,B,,A,,E,, | 
[V:1] D2E2D2 & A,2x4 | 
[V:2] x2^G,4 & F,,2E,,4 | 
[V:1] ^C6- | 
[V:2] A,B,A,^F,E,F, & A,,6- | 
[V:1] C2z2z2 |]  
[V:2] E,2z2z2 & A,,2z2z2 |]  


